svgs/apktool_m.svg

<svg xmlns="http://www.w3.org/2000/svg" viewBox="0 0 192 192"><path d="m160.559 66.149 11.138-11.071c5.074-5.093 5.074-13.357 0-18.451a12.93 12.93 0 0 0-18.441 0l-11.097 11.071a78.83 78.83 0 0 0-92.531 0L38.939 36.791a13.01 13.01 0 0 0-18.482 0c-5.052 5.103-5.052 13.349 0 18.451l11.097 10.989A79.978 79.978 0 0 0 16.5 112.809V150.9c0 4.642 3.744 8.406 8.363 8.406H167.25c4.539-.112 8.161-3.843 8.16-8.406v-38.091a79.85 79.85 0 0 0-14.851-46.66Zm-97.916 59.412c-13.106.036-19.692-15.886-10.426-25.198 9.266-9.312 25.109-2.693 25.072 10.478.001 8.162-6.607 14.765-14.728 14.72Z" fill="none" stroke="#000" stroke-width="8" stroke-linecap="round" stroke-linejoin="round"/><path d="M129.177 91.56c-.989.081-1.473.326-1.631.831-.056.172-.059.26-.031.709.045.761.031 1.175-.049 1.427-.2.628-.747 1.074-1.719 1.393-1.249.414-2.108.358-2.683-.179-.207-.196-.358-.414-.656-.947-.291-.526-.442-.712-.67-.828-.368-.182-.814-.108-1.522.253-.845.431-1.564 1.006-1.771 1.42-.207.411-.137.705.336 1.417.165.246.348.54.404.649.273.537.27 1.042-.004 1.631-.305.659-1.108 1.505-1.782 1.876a1.746 1.746 0 0 1-1.623.074 8.565 8.565 0 0 1-.611-.344 6.299 6.299 0 0 0-.631-.343 1.011 1.011 0 0 0-.733.007c-.386.168-.88.806-1.322 1.701-.348.708-.453 1.196-.341 1.578.071.242.397.53.87.775 1.277.663 1.614 1.137 1.568 2.21-.046 1.126-.487 2.206-1.08 2.655-.365.274-.719.347-1.638.34-.761-.003-.916.028-1.158.235-.175.147-.294.397-.378.768-.095.428-.088 1.698.01 2.161.151.701.428 1.038.944 1.147.094.021.42.056.719.077 1.259.088 1.564.182 2.041.628.48.452.866 1.536.866 2.437 0 .593-.133.954-.487 1.309-.176.175-.421.336-1.102.715-.368.204-.526.344-.634.565-.183.365-.113.764.256 1.519.449.908.975 1.585 1.406 1.82.154.084.246.109.477.119.379.021.544-.031 1.315-.41.947-.47 1.231-.509 1.957-.277.453.143.604.224.923.498.726.62 1.15 1.35 1.15 1.967 0 .393-.091.635-.505 1.33-.329.554-.407.747-.407 1.013 0 .523.47.982 1.74 1.708.705.4 1.014.505 1.428.484.515-.028.712-.196 1.192-1.01.607-1.02.993-1.273 2.083-1.364.235-.018.463-.053.502-.074.14-.073.768.088 1.249.319.54.263.891.628 1.038 1.084.063.193.077.351.095 1.07.028.961.049 1.049.319 1.294.266.239.592.34 1.378.425.256.024.509.063.561.084.148.056.782.045 1.024-.014.498-.13.793-.348.972-.709l.112-.231.025-.793c.021-.68.035-.828.101-1.035.172-.536.495-.873 1.305-1.35.169-.098.337-.224.375-.277.169-.239 1.182-.396 1.761-.274.596.127.951.453 1.431 1.319.253.456.432.681.614.789.305.179.656.176 1.256-.014a3.77 3.77 0 0 1 .48-.122c.179-.029.579-.221.817-.393.249-.186.632-.611.758-.849.06-.112.137-.305.168-.424.092-.369.014-.593-.456-1.323a4.095 4.095 0 0 1-.336-.6 1.76 1.76 0 0 1-.056-.961c.052-.235.126-.399.505-1.136a3.64 3.64 0 0 0 .147-.319c.06-.165.515-.61.852-.835.404-.27.698-.375 1.098-.396.481-.028.666.038 1.554.547.47.266.691.337.971.309.263-.028.502-.169.779-.46.309-.326.53-.666.821-1.27.48-.999.505-1.578.084-1.995-.137-.134-.312-.242-.758-.463-.813-.407-1.098-.663-1.255-1.14-.306-.937-.099-2.283.487-3.136.116-.168.488-.431.912-.649l.295-.147.754-.024c.649-.025.782-.039.954-.102.586-.225.799-.905.726-2.322-.056-1.08-.256-1.592-.712-1.831-.183-.091-.53-.112-1.217-.067a5.134 5.134 0 0 1-.754 0c-.825-.108-1.466-.869-1.782-2.122-.179-.704-.196-1.238-.053-1.673.151-.445.474-.771 1.242-1.241.6-.372.831-.586.908-.849.109-.368.042-.701-.256-1.315-.428-.87-1.059-1.684-1.459-1.877a1.054 1.054 0 0 0-.75-.052c-.099.031-.397.203-.663.386a10.94 10.94 0 0 1-.656.413c-.887.446-1.82.141-2.852-.936-.712-.747-.978-1.396-.838-2.041.067-.316.186-.579.498-1.119.389-.67.442-.965.246-1.347-.186-.368-.768-.821-1.579-1.224-.599-.298-.891-.396-1.245-.417-.259-.018-.326-.007-.484.059-.273.119-.428.319-.764 1-.162.326-.362.684-.446.789-.512.645-1.385.81-2.641.491-1.206-.305-1.848-.824-2.013-1.627-.025-.113-.046-.523-.053-.912-.01-.786-.045-.965-.228-1.186-.133-.161-.466-.33-.785-.396-.313-.063-1.126-.091-1.6-.053Zm2.371 6.489c1.214.08 2.126.266 3.202.656a13.463 13.463 0 0 1 7.843 7.397c.214.491.544 1.487.68 2.055.267 1.08.372 1.996.372 3.202 0 .965-.035 1.421-.179 2.263a13.518 13.518 0 0 1-16.491 10.851 13.56 13.56 0 0 1-5.268-2.588c-.562-.449-1.645-1.529-2.077-2.073-2.427-3.058-3.423-6.878-2.778-10.68.267-1.568.884-3.223 1.68-4.507.772-1.241 1.039-1.62 1.575-2.224.397-.445.586-.613 1.003-.887.165-.109.526-.368.807-.572 1.049-.775 1.543-1.073 2.929-1.764 1.508-.754 1.802-.838 3.472-1.02 1.263-.141 2.238-.172 3.23-.109Z" stroke="#000" stroke-width="3"/></svg>

<svg
    xmlns="http://www.w3.org/2000/svg"
    viewBox="0 0 192 192"
    id="vector">
    <path
        id="path"
        d="M 160.559 66.149 L 171.697 55.078 C 176.771 49.985 176.771 41.721 171.697 36.627 C 166.62 31.473 158.333 31.473 153.256 36.627 L 142.159 47.698 C 114.527 27.692 77.26 27.692 49.628 47.698 L 38.939 36.791 C 33.838 31.655 25.558 31.655 20.457 36.791 C 15.405 41.894 15.405 50.14 20.457 55.242 L 31.554 66.231 C 21.797 79.785 16.53 96.08 16.5 112.809 L 16.5 150.9 C 16.5 155.542 20.244 159.306 24.863 159.306 L 167.25 159.306 C 171.789 159.194 175.411 155.463 175.41 150.9 L 175.41 112.809 C 175.465 96.073 170.268 79.746 160.559 66.149 Z M 62.643 125.561 C 49.537 125.597 42.951 109.675 52.217 100.363 C 61.483 91.051 77.326 97.67 77.289 110.841 C 77.29 119.003 70.682 125.606 62.561 125.561 Z"
        fill="none"
        stroke="#000000"
        stroke-width="8"
        stroke-linecap="round"
        stroke-linejoin="round"/>
    <path
        id="path_1"
        d="M 129.177 91.56 C 128.188 91.641 127.704 91.886 127.546 92.391 C 127.49 92.563 127.487 92.651 127.515 93.1 C 127.56 93.861 127.546 94.275 127.466 94.527 C 127.266 95.155 126.719 95.601 125.747 95.92 C 124.498 96.334 123.639 96.278 123.064 95.741 C 122.857 95.545 122.706 95.327 122.408 94.794 C 122.117 94.268 121.966 94.082 121.738 93.966 C 121.37 93.784 120.924 93.858 120.216 94.219 C 119.371 94.65 118.652 95.225 118.445 95.639 C 118.238 96.05 118.308 96.344 118.781 97.056 C 118.946 97.302 119.129 97.596 119.185 97.705 C 119.458 98.242 119.455 98.747 119.181 99.336 C 118.876 99.995 118.073 100.841 117.399 101.212 C 116.873 101.504 116.326 101.528 115.776 101.286 C 115.688 101.248 115.411 101.09 115.165 100.942 C 114.916 100.792 114.632 100.637 114.534 100.599 C 114.302 100.511 114.008 100.511 113.801 100.606 C 113.415 100.774 112.921 101.412 112.479 102.307 C 112.131 103.015 112.026 103.503 112.138 103.885 C 112.209 104.127 112.535 104.415 113.008 104.66 C 114.285 105.323 114.622 105.797 114.576 106.87 C 114.53 107.996 114.089 109.076 113.496 109.525 C 113.131 109.799 112.777 109.872 111.858 109.865 C 111.097 109.862 110.942 109.893 110.7 110.1 C 110.525 110.247 110.406 110.497 110.322 110.868 C 110.227 111.296 110.234 112.566 110.332 113.029 C 110.483 113.73 110.76 114.067 111.276 114.176 C 111.37 114.197 111.696 114.232 111.995 114.253 C 113.254 114.341 113.559 114.435 114.036 114.881 C 114.516 115.333 114.902 116.417 114.902 117.318 C 114.902 117.911 114.769 118.272 114.415 118.627 C 114.239 118.802 113.994 118.963 113.313 119.342 C 112.945 119.546 112.787 119.686 112.679 119.907 C 112.496 120.272 112.566 120.671 112.935 121.426 C 113.384 122.334 113.91 123.011 114.341 123.246 C 114.495 123.33 114.587 123.355 114.818 123.365 C 115.197 123.386 115.362 123.334 116.133 122.955 C 117.08 122.485 117.364 122.446 118.09 122.678 C 118.543 122.821 118.694 122.902 119.013 123.176 C 119.739 123.796 120.163 124.526 120.163 125.143 C 120.163 125.536 120.072 125.778 119.658 126.473 C 119.329 127.027 119.251 127.22 119.251 127.486 C 119.251 128.009 119.721 128.468 120.991 129.194 C 121.696 129.594 122.005 129.699 122.419 129.678 C 122.934 129.65 123.131 129.482 123.611 128.668 C 124.218 127.648 124.604 127.395 125.694 127.304 C 125.929 127.286 126.157 127.251 126.196 127.23 C 126.336 127.157 126.964 127.318 127.445 127.549 C 127.985 127.812 128.336 128.177 128.483 128.633 C 128.546 128.826 128.56 128.984 128.578 129.703 C 128.606 130.664 128.627 130.752 128.897 130.997 C 129.163 131.236 129.489 131.337 130.275 131.422 C 130.531 131.446 130.784 131.485 130.836 131.506 C 130.984 131.562 131.618 131.551 131.86 131.492 C 132.358 131.362 132.653 131.144 132.832 130.783 L 132.944 130.552 L 132.969 129.759 C 132.99 129.079 133.004 128.931 133.07 128.724 C 133.242 128.188 133.565 127.851 134.375 127.374 C 134.544 127.276 134.712 127.15 134.75 127.097 C 134.919 126.858 135.932 126.701 136.511 126.823 C 137.107 126.95 137.462 127.276 137.942 128.142 C 138.195 128.598 138.374 128.823 138.556 128.931 C 138.861 129.11 139.212 129.107 139.812 128.917 C 139.991 128.861 140.208 128.805 140.292 128.795 C 140.471 128.766 140.871 128.574 141.109 128.402 C 141.358 128.216 141.741 127.791 141.867 127.553 C 141.927 127.441 142.004 127.248 142.035 127.129 C 142.127 126.76 142.049 126.536 141.579 125.806 C 141.432 125.582 141.281 125.312 141.243 125.206 C 141.137 124.926 141.116 124.561 141.187 124.245 C 141.239 124.01 141.313 123.846 141.692 123.109 C 141.751 122.993 141.818 122.85 141.839 122.79 C 141.899 122.625 142.354 122.18 142.691 121.955 C 143.095 121.685 143.389 121.58 143.789 121.559 C 144.27 121.531 144.455 121.597 145.343 122.106 C 145.813 122.372 146.034 122.443 146.314 122.415 C 146.577 122.387 146.816 122.246 147.093 121.955 C 147.402 121.629 147.623 121.289 147.914 120.685 C 148.394 119.686 148.419 119.107 147.998 118.69 C 147.861 118.556 147.686 118.448 147.24 118.227 C 146.427 117.82 146.142 117.564 145.985 117.087 C 145.679 116.15 145.886 114.804 146.472 113.951 C 146.588 113.783 146.96 113.52 147.384 113.302 L 147.679 113.155 L 148.433 113.131 C 149.082 113.106 149.215 113.092 149.387 113.029 C 149.973 112.804 150.186 112.124 150.113 110.707 C 150.057 109.627 149.857 109.115 149.401 108.876 C 149.218 108.785 148.871 108.764 148.184 108.809 C 147.879 108.827 147.573 108.827 147.43 108.809 C 146.605 108.701 145.964 107.94 145.648 106.687 C 145.469 105.983 145.452 105.449 145.595 105.014 C 145.746 104.569 146.069 104.243 146.837 103.773 C 147.437 103.401 147.668 103.187 147.745 102.924 C 147.854 102.556 147.787 102.223 147.489 101.609 C 147.061 100.739 146.43 99.925 146.03 99.732 C 145.802 99.624 145.511 99.603 145.28 99.68 C 145.181 99.711 144.883 99.883 144.617 100.066 C 144.35 100.244 144.056 100.43 143.961 100.479 C 143.074 100.925 142.141 100.62 141.109 99.543 C 140.397 98.796 140.131 98.147 140.271 97.502 C 140.338 97.186 140.457 96.923 140.769 96.383 C 141.158 95.713 141.211 95.418 141.015 95.036 C 140.829 94.668 140.247 94.215 139.436 93.812 C 138.837 93.514 138.545 93.416 138.191 93.395 C 137.932 93.377 137.865 93.388 137.707 93.454 C 137.434 93.573 137.279 93.773 136.943 94.454 C 136.781 94.78 136.581 95.138 136.497 95.243 C 135.985 95.888 135.112 96.053 133.856 95.734 C 132.65 95.429 132.008 94.91 131.843 94.107 C 131.818 93.994 131.797 93.584 131.79 93.195 C 131.78 92.409 131.745 92.23 131.562 92.009 C 131.429 91.848 131.096 91.679 130.777 91.613 C 130.464 91.55 129.651 91.522 129.177 91.56 Z M 131.548 98.049 C 132.762 98.129 133.674 98.315 134.75 98.705 C 138.293 99.981 141.102 102.633 142.593 106.102 C 142.807 106.593 143.137 107.589 143.273 108.157 C 143.54 109.237 143.645 110.153 143.645 111.359 C 143.645 112.324 143.61 112.78 143.466 113.622 C 142.737 117.894 139.984 121.569 136.083 123.477 C 133.256 124.859 130.019 125.213 126.975 124.473 C 125.053 124.007 123.271 123.13 121.707 121.885 C 121.145 121.436 120.062 120.356 119.63 119.812 C 117.203 116.754 116.207 112.934 116.852 109.132 C 117.119 107.564 117.736 105.909 118.532 104.625 C 119.304 103.384 119.571 103.005 120.107 102.401 C 120.504 101.956 120.693 101.788 121.11 101.514 C 121.275 101.405 121.636 101.146 121.917 100.942 C 122.966 100.167 123.46 99.869 124.846 99.178 C 126.354 98.424 126.648 98.34 128.318 98.158 C 129.581 98.017 130.556 97.986 131.548 98.049 Z"
        fill="#000000"
        stroke="#000000"
        stroke-width="3"/>
</svg>
